Numix-Light/16/status/indicator-keyboard-By-3.svg

<?xml version="1.0" encoding="UTF-8" standalone="no"?>
<svg
   xmlns:dc="http://purl.org/dc/elements/1.1/"
   xmlns:cc="http://creativecommons.org/ns#"
   xmlns:rdf="http://www.w3.org/1999/02/22-rdf-syntax-ns#"
   xmlns:svg="http://www.w3.org/2000/svg"
   xmlns="http://www.w3.org/2000/svg"
   xmlns:sodipodi="http://sodipodi.sourceforge.net/DTD/sodipodi-0.dtd"
   xmlns:inkscape="http://www.inkscape.org/namespaces/inkscape"
   viewBox="0 0 16 16"
   id="svg2"
   version="1.1"
   inkscape:version="0.91 r13725"
   sodipodi:docname="indicator-keyboard-By-3.svg">
  <metadata
     id="metadata14">
    <rdf:RDF>
      <cc:Work
         rdf:about="">
        <dc:format>image/svg+xml</dc:format>
        <dc:type
           rdf:resource="http://purl.org/dc/dcmitype/StillImage" />
      </cc:Work>
    </rdf:RDF>
  </metadata>
  <defs
     id="defs12" />
  <sodipodi:namedview
     pagecolor="#ffffff"
     bordercolor="#666666"
     borderopacity="1"
     objecttolerance="10"
     gridtolerance="10"
     guidetolerance="10"
     inkscape:pageopacity="0"
     inkscape:pageshadow="2"
     inkscape:window-width="640"
     inkscape:window-height="480"
     id="namedview10"
     showgrid="false"
     inkscape:zoom="14.75"
     inkscape:cx="8"
     inkscape:cy="8"
     inkscape:window-x="65"
     inkscape:window-y="24"
     inkscape:window-maximized="0"
     inkscape:current-layer="svg2" />
  <path
     style="fill:#353535;fill-opacity:1"
     d="M 1.5996094 0 C 0.71320937 2.9605947e-16 0 0.71320937 0 1.5996094 L 0 14.400391 C 2.9605947e-16 15.286791 0.71320937 16 1.5996094 16 L 14.400391 16 C 15.286791 16 16 15.286791 16 14.400391 L 16 1.5996094 C 16 0.71320937 15.286791 0 14.400391 0 L 1.5996094 0 z M 3.578125 4.8046875 C 3.914125 4.8046875 4.23125 4.8327188 4.53125 4.8867188 C 4.83725 4.9407188 5.1040313 5.03025 5.3320312 5.15625 C 5.5600312 5.28225 5.7410469 5.4501563 5.8730469 5.6601562 C 6.0110469 5.8641562 6.0800781 6.1197813 6.0800781 6.4257812 C 6.0800781 6.7617813 5.9923594 7.0490625 5.8183594 7.2890625 C 5.6503594 7.5230625 5.4227656 7.6853906 5.1347656 7.7753906 C 5.3147656 7.8173906 5.4789063 7.8770781 5.6289062 7.9550781 C 5.7789062 8.0330781 5.9113906 8.1357188 6.0253906 8.2617188 C 6.1393906 8.3817187 6.2271094 8.5309375 6.2871094 8.7109375 C 6.3531094 8.8849375 6.3847656 9.0957969 6.3847656 9.3417969 C 6.3847656 9.9297971 6.1515937 10.379406 5.6835938 10.691406 C 5.2155938 10.997406 4.4916719 11.150391 3.5136719 11.150391 C 3.4116719 11.150391 3.2922969 11.144813 3.1542969 11.132812 C 3.0222969 11.126812 2.8842344 11.113703 2.7402344 11.095703 C 2.6022344 11.083703 2.46975 11.068781 2.34375 11.050781 C 2.21775 11.026781 2.1114844 11.002516 2.0214844 10.978516 L 2.0214844 4.9765625 C 2.1294844 4.9465625 2.2488594 4.9222969 2.3808594 4.9042969 C 2.5128594 4.8802969 2.6471562 4.8616094 2.7851562 4.8496094 C 2.9291563 4.8316094 3.0672187 4.8204531 3.1992188 4.8144531 C 3.3372187 4.8084531 3.464125 4.8046875 3.578125 4.8046875 z M 3.578125 5.3261719 C 3.356125 5.3261719 3.1657656 5.3337031 3.0097656 5.3457031 C 2.8597656 5.3577031 2.7348125 5.372625 2.6328125 5.390625 L 2.6328125 7.5859375 L 3.8203125 7.5859375 C 4.0423125 7.5859375 4.2531719 7.5710156 4.4511719 7.5410156 C 4.6491719 7.5050156 4.8188906 7.4453281 4.9628906 7.3613281 C 5.1128906 7.2713281 5.2304531 7.1537656 5.3144531 7.0097656 C 5.3984531 6.8597656 5.4414063 6.6713594 5.4414062 6.4433594 C 5.4414062 6.2393594 5.3946875 6.0676875 5.3046875 5.9296875 C 5.2146875 5.7856875 5.0859688 5.668125 4.9179688 5.578125 C 4.7559688 5.488125 4.5619844 5.426625 4.3339844 5.390625 C 4.1059844 5.348625 3.854125 5.3261719 3.578125 5.3261719 z M 7.0683594 6.4433594 L 7.6894531 6.4433594 C 7.7554531 6.7313594 7.8394062 7.0429062 7.9414062 7.3789062 C 8.0434063 7.7089063 8.1572031 8.0502969 8.2832031 8.4042969 C 8.4152031 8.7582969 8.5588438 9.1221406 8.7148438 9.4941406 C 8.8708437 9.8661408 9.03875 10.231797 9.21875 10.591797 C 9.35075 10.219797 9.4683125 9.8690627 9.5703125 9.5390625 C 9.6723125 9.2090625 9.7656094 8.8825937 9.8496094 8.5585938 C 9.9396094 8.2285937 10.023563 7.8927813 10.101562 7.5507812 C 10.185562 7.2087813 10.271328 6.8393594 10.361328 6.4433594 L 10.947266 6.4433594 C 10.755266 7.3133594 10.537016 8.1584688 10.291016 8.9804688 C 10.045016 9.802469 9.7782344 10.556234 9.4902344 11.240234 C 9.3762344 11.510234 9.2586719 11.741594 9.1386719 11.933594 C 9.0186719 12.131594 8.8824219 12.293922 8.7324219 12.419922 C 8.5884219 12.545922 8.4187031 12.637266 8.2207031 12.697266 C 8.0287031 12.757266 7.8011094 12.787109 7.5371094 12.787109 C 7.3871094 12.787109 7.2490469 12.770375 7.1230469 12.734375 C 7.0030469 12.698375 6.9264844 12.670344 6.8964844 12.652344 L 7.0136719 12.167969 C 7.0376719 12.185969 7.1048906 12.208281 7.2128906 12.238281 C 7.3268906 12.274281 7.4425 12.292969 7.5625 12.292969 C 7.7305 12.292969 7.8816719 12.274281 8.0136719 12.238281 C 8.1516719 12.202281 8.2748125 12.140781 8.3828125 12.050781 C 8.4908125 11.966781 8.5859219 11.854797 8.6699219 11.716797 C 8.7599219 11.578797 8.8476406 11.405313 8.9316406 11.195312 C 8.7336406 10.829313 8.5414687 10.448734 8.3554688 10.052734 C 8.1754687 9.6567342 8.0037969 9.2574688 7.8417969 8.8554688 C 7.6857969 8.4474688 7.5421562 8.042625 7.4101562 7.640625 C 7.2781563 7.232625 7.1643594 6.8333594 7.0683594 6.4433594 z M 2.6328125 8.1074219 L 2.6328125 10.564453 C 2.7228125 10.576453 2.8571094 10.591375 3.0371094 10.609375 C 3.2171094 10.621375 3.3999375 10.628906 3.5859375 10.628906 C 3.8619375 10.628906 4.1287187 10.610219 4.3867188 10.574219 C 4.6507188 10.538219 4.8820781 10.472953 5.0800781 10.376953 C 5.2780781 10.280953 5.4366406 10.148469 5.5566406 9.9804688 C 5.6766406 9.8124687 5.7382813 9.5960312 5.7382812 9.3320312 C 5.7382812 9.0920312 5.6953281 8.8942812 5.6113281 8.7382812 C 5.5273281 8.5762813 5.4079531 8.449375 5.2519531 8.359375 C 5.0959531 8.263375 4.9037812 8.1981094 4.6757812 8.1621094 C 4.4537813 8.1261094 4.2037344 8.1074219 3.9277344 8.1074219 L 2.6328125 8.1074219 z M 12.611328 8.7539062 C 12.814128 8.7539062 12.986559 8.7793781 13.130859 8.8300781 C 13.279059 8.8807781 13.4025 8.953275 13.5 9.046875 C 13.5975 9.136575 13.669997 9.2463 13.716797 9.375 C 13.763597 9.4997999 13.787109 9.6350031 13.787109 9.7832031 C 13.787109 10.021103 13.72245 10.217041 13.59375 10.369141 C 13.46895 10.517341 13.306322 10.625106 13.107422 10.691406 C 13.216622 10.718706 13.322428 10.759859 13.423828 10.818359 C 13.529128 10.872959 13.623178 10.945456 13.705078 11.035156 C 13.786978 11.120956 13.853597 11.226762 13.904297 11.351562 C 13.954997 11.476363 13.978516 11.623316 13.978516 11.791016 C 13.978516 11.962616 13.949119 12.119372 13.886719 12.263672 C 13.828219 12.407972 13.738087 12.535331 13.617188 12.644531 C 13.500187 12.749831 13.349316 12.834084 13.166016 12.896484 C 12.982716 12.954984 12.769137 12.984375 12.523438 12.984375 C 12.394737 12.984375 12.275216 12.974578 12.166016 12.955078 C 12.060716 12.939478 11.966666 12.919884 11.884766 12.896484 C 11.802866 12.873084 11.732328 12.849572 11.673828 12.826172 C 11.619228 12.802772 11.578081 12.783178 11.550781 12.767578 L 11.650391 12.427734 C 11.673791 12.443334 11.712978 12.462928 11.767578 12.486328 C 11.822178 12.509728 11.886837 12.533241 11.960938 12.556641 C 12.038937 12.576141 12.12515 12.593775 12.21875 12.609375 C 12.31625 12.624975 12.422056 12.632813 12.535156 12.632812 C 12.905656 12.632812 13.170178 12.556397 13.330078 12.404297 C 13.489978 12.248297 13.570312 12.040597 13.570312 11.779297 C 13.570312 11.607697 13.537003 11.464662 13.470703 11.351562 C 13.408303 11.238462 13.320131 11.148331 13.207031 11.082031 C 13.097831 11.011831 12.968512 10.962847 12.820312 10.935547 C 12.676013 10.904347 12.523175 10.888672 12.359375 10.888672 L 12.300781 10.888672 L 12.300781 10.574219 L 12.435547 10.574219 C 12.540847 10.574219 12.646659 10.564422 12.755859 10.544922 C 12.868959 10.521522 12.970847 10.480375 13.060547 10.421875 C 13.154147 10.363375 13.230562 10.285 13.289062 10.1875 C 13.351463 10.09 13.382813 9.9646001 13.382812 9.8125 C 13.382812 9.6838 13.361259 9.5760281 13.318359 9.4863281 C 13.275459 9.3927281 13.216678 9.3182719 13.142578 9.2636719 C 13.072378 9.2090719 12.988125 9.1698844 12.890625 9.1464844 C 12.797025 9.1191844 12.69905 9.1054687 12.59375 9.1054688 C 12.38315 9.1054688 12.218562 9.1348594 12.101562 9.1933594 C 11.984563 9.2518594 11.888553 9.3067219 11.814453 9.3574219 L 11.650391 9.0585938 C 11.689391 9.0312937 11.738375 8.9999438 11.796875 8.9648438 C 11.859275 8.9297438 11.931772 8.8964344 12.013672 8.8652344 C 12.095571 8.8340344 12.185703 8.8085625 12.283203 8.7890625 C 12.384603 8.7656625 12.494328 8.7539062 12.611328 8.7539062 z "
     id="path4" />
</svg>

<svg xmlns="http://www.w3.org/2000/svg" viewBox="0 0 16 16">
 <path d="m 1.6 0 c -0.886 0 -1.6 0.713 -1.6 1.6 l 0 12.801 c 0 0.886 0.713 1.6 1.6 1.6 l 12.801 0 c 0.886 0 1.6 -0.713 1.6 -1.6 l 0 -12.801 c 0 -0.886 -0.713 -1.6 -1.6 -1.6 l -12.801 0 z m 1.979 4.805 c 0.336 0 0.653 0.028 0.953 0.082 c 0.306 0.054 0.573 0.144 0.801 0.27 c 0.228 0.126 0.409 0.294 0.541 0.504 c 0.138 0.204 0.207 0.46 0.207 0.766 c 0 0.336 -0.088 0.623 -0.262 0.863 c -0.168 0.234 -0.396 0.396 -0.684 0.486 c 0.18 0.042 0.344 0.102 0.494 0.18 c 0.15 0.078 0.282 0.181 0.396 0.307 c 0.114 0.12 0.202 0.269 0.262 0.449 c 0.066 0.174 0.098 0.385 0.098 0.631 c 0 0.588 -0.233 1.038 -0.701 1.35 c -0.468 0.306 -1.192 0.459 -2.17 0.459 c -0.102 0 -0.221 -0.006 -0.359 -0.018 c -0.132 -0.006 -0.27 -0.019 -0.414 -0.037 c -0.138 -0.012 -0.27 -0.027 -0.396 -0.045 c -0.126 -0.024 -0.232 -0.048 -0.322 -0.072 l 0 -6 c 0.108 -0.03 0.227 -0.054 0.359 -0.072 c 0.132 -0.024 0.266 -0.043 0.404 -0.055 c 0.144 -0.018 0.282 -0.029 0.414 -0.035 c 0.138 -0.006 0.265 -0.01 0.379 -0.01 z m 0 0.521 c -0.222 0 -0.412 0.008 -0.568 0.02 c -0.15 0.012 -0.275 0.027 -0.377 0.045 l 0 2.195 l 1.188 0 c 0.222 0 0.433 -0.015 0.631 -0.045 c 0.198 -0.036 0.368 -0.096 0.512 -0.18 c 0.15 -0.09 0.268 -0.208 0.352 -0.352 c 0.084 -0.15 0.127 -0.338 0.127 -0.566 c 0 -0.204 -0.047 -0.376 -0.137 -0.514 c -0.09 -0.144 -0.219 -0.262 -0.387 -0.352 c -0.162 -0.09 -0.356 -0.152 -0.584 -0.188 c -0.228 -0.042 -0.48 -0.064 -0.756 -0.064 z m 3.49 1.117 l 0.621 0 c 0.066 0.288 0.15 0.6 0.252 0.936 c 0.102 0.33 0.216 0.671 0.342 1.025 c 0.132 0.354 0.276 0.718 0.432 1.09 c 0.156 0.372 0.324 0.738 0.504 1.098 c 0.132 -0.372 0.25 -0.723 0.352 -1.053 c 0.102 -0.33 0.195 -0.656 0.279 -0.98 c 0.09 -0.33 0.174 -0.666 0.252 -1.01 c 0.084 -0.342 0.17 -0.711 0.26 -1.107 l 0.586 0 c -0.192 0.87 -0.41 1.715 -0.656 2.537 c -0.246 0.822 -0.513 1.576 -0.801 2.26 c -0.114 0.27 -0.232 0.501 -0.352 0.693 c -0.12 0.198 -0.256 0.36 -0.406 0.486 c -0.144 0.126 -0.314 0.217 -0.512 0.277 c -0.192 0.06 -0.42 0.09 -0.684 0.09 c -0.15 0 -0.288 -0.017 -0.414 -0.053 c -0.12 -0.036 -0.197 -0.064 -0.227 -0.082 l 0.117 -0.484 c 0.024 0.018 0.091 0.04 0.199 0.07 c 0.114 0.036 0.23 0.055 0.35 0.055 c 0.168 0 0.319 -0.019 0.451 -0.055 c 0.138 -0.036 0.261 -0.098 0.369 -0.188 c 0.108 -0.084 0.203 -0.196 0.287 -0.334 c 0.09 -0.138 0.178 -0.311 0.262 -0.521 c -0.198 -0.366 -0.39 -0.747 -0.576 -1.143 c -0.18 -0.396 -0.352 -0.795 -0.514 -1.197 c -0.156 -0.408 -0.3 -0.813 -0.432 -1.215 c -0.132 -0.408 -0.246 -0.807 -0.342 -1.197 z m -4.436 1.664 l 0 2.457 c 0.09 0.012 0.224 0.027 0.404 0.045 c 0.18 0.012 0.363 0.02 0.549 0.02 c 0.276 0 0.543 -0.019 0.801 -0.055 c 0.264 -0.036 0.495 -0.101 0.693 -0.197 c 0.198 -0.096 0.357 -0.228 0.477 -0.396 c 0.12 -0.168 0.182 -0.384 0.182 -0.648 c 0 -0.24 -0.043 -0.438 -0.127 -0.594 c -0.084 -0.162 -0.203 -0.289 -0.359 -0.379 c -0.156 -0.096 -0.348 -0.161 -0.576 -0.197 c -0.222 -0.036 -0.472 -0.055 -0.748 -0.055 l -1.295 0 z m 9.979 0.646 c 0.203 0 0.375 0.025 0.52 0.076 c 0.148 0.051 0.272 0.123 0.369 0.217 c 0.098 0.09 0.17 0.199 0.217 0.328 c 0.047 0.125 0.07 0.26 0.07 0.408 c 0 0.238 -0.065 0.434 -0.193 0.586 c -0.125 0.148 -0.287 0.256 -0.486 0.322 c 0.109 0.027 0.215 0.068 0.316 0.127 c 0.105 0.055 0.199 0.127 0.281 0.217 c 0.082 0.086 0.149 0.192 0.199 0.316 c 0.051 0.125 0.074 0.272 0.074 0.439 c 0 0.172 -0.029 0.328 -0.092 0.473 c -0.058 0.144 -0.149 0.272 -0.27 0.381 c -0.117 0.105 -0.268 0.19 -0.451 0.252 c -0.183 0.059 -0.397 0.088 -0.643 0.088 c -0.129 0 -0.248 -0.01 -0.357 -0.029 c -0.105 -0.016 -0.199 -0.035 -0.281 -0.059 c -0.082 -0.023 -0.152 -0.047 -0.211 -0.07 c -0.055 -0.023 -0.096 -0.043 -0.123 -0.059 l 0.1 -0.34 c 0.023 0.016 0.063 0.035 0.117 0.059 c 0.055 0.023 0.119 0.047 0.193 0.07 c 0.078 0.019 0.164 0.037 0.258 0.053 c 0.098 0.016 0.203 0.023 0.316 0.023 c 0.37 0 0.635 -0.076 0.795 -0.229 c 0.16 -0.156 0.24 -0.364 0.24 -0.625 c 0 -0.172 -0.033 -0.315 -0.1 -0.428 c -0.062 -0.113 -0.151 -0.203 -0.264 -0.27 c -0.109 -0.07 -0.239 -0.119 -0.387 -0.146 c -0.144 -0.031 -0.297 -0.047 -0.461 -0.047 l -0.059 0 l 0 -0.314 l 0.135 0 c 0.105 0 0.211 -0.01 0.32 -0.029 c 0.113 -0.023 0.215 -0.065 0.305 -0.123 c 0.094 -0.059 0.17 -0.137 0.229 -0.234 c 0.062 -0.098 0.094 -0.223 0.094 -0.375 c 0 -0.129 -0.022 -0.236 -0.064 -0.326 c -0.043 -0.094 -0.102 -0.168 -0.176 -0.223 c -0.07 -0.055 -0.154 -0.094 -0.252 -0.117 c -0.094 -0.027 -0.192 -0.041 -0.297 -0.041 c -0.211 0 -0.375 0.029 -0.492 0.088 c -0.117 0.059 -0.213 0.113 -0.287 0.164 l -0.164 -0.299 c 0.039 -0.027 0.088 -0.059 0.146 -0.094 c 0.062 -0.035 0.135 -0.068 0.217 -0.1 c 0.082 -0.031 0.172 -0.057 0.27 -0.076 c 0.101 -0.023 0.211 -0.035 0.328 -0.035 z" style="fill:#353535;fill-opacity:1"/>
</svg>
